symbols/web/30fps_select/materialsymbolsrounded/30fps_select_wght500_24px.svg

<svg xmlns="http://www.w3.org/2000/svg" height="24" width="24"><path d="M5 14.1q-.475 0-.787-.313Q3.9 13.475 3.9 13q0-.475.313-.788.312-.312.787-.312h3.825v-1.85H4.95q-.45 0-.75-.3T3.9 9q0-.45.3-.75t.75-.3h3.875V6.1H5q-.475 0-.787-.313Q3.9 5.475 3.9 5q0-.475.313-.788Q4.525 3.9 5 3.9h3.825q.9 0 1.538.637Q11 5.175 11 6.1v1.4q0 .625-.375 1.037-.375.413-1 .463.625.05 1 .462Q11 9.875 11 10.5v1.4q0 .925-.637 1.562-.638.638-1.538.638Zm13.1 0h-2.925q-.9 0-1.538-.638Q13 12.825 13 11.9V6.1q0-.925.637-1.563.638-.637 1.538-.637H18.1q.9 0 1.538.637.637.638.637 1.563v5.8q0 .925-.637 1.562Q19 14.1 18.1 14.1Zm0-2.2V6.1h-2.925v5.8ZM3.725 22q-.45 0-.75-.3t-.3-.75v-2.9q0-.45.3-.75t.75-.3q.45 0 .75.3t.3.75v2.9q0 .45-.3.75t-.75.3Zm4.1 0q-.45 0-.75-.3t-.3-.75v-2.9q0-.45.3-.75t.75-.3q.425 0 .725.3t.3.75v2.9q0 .45-.3.75t-.725.3Zm4.075 0q-.425 0-.737-.3-.313-.3-.313-.75v-2.9q0-.45.313-.75.312-.3.737-.3.45 0 .75.3t.3.75v2.9q0 .45-.3.75t-.75.3Zm4.2 0q-.5 0-.825-.325-.325-.325-.325-.825v-2.7q0-.5.325-.825Q15.6 17 16.1 17h4.075q.5 0 .825.325.325.325.325.825v2.7q0 .5-.325.825-.325.325-.825.325Z"/></svg>

<svg xmlns="http://www.w3.org/2000/svg" height="24" width="24"><path d="M5 14.1Q4.525 14.1 4.213 13.787Q3.9 13.475 3.9 13Q3.9 12.525 4.213 12.212Q4.525 11.9 5 11.9H8.825Q8.825 11.9 8.825 11.9Q8.825 11.9 8.825 11.9V10.05Q8.825 10.05 8.825 10.05Q8.825 10.05 8.825 10.05H4.95Q4.5 10.05 4.2 9.75Q3.9 9.45 3.9 9Q3.9 8.55 4.2 8.25Q4.5 7.95 4.95 7.95H8.825Q8.825 7.95 8.825 7.95Q8.825 7.95 8.825 7.95V6.1Q8.825 6.1 8.825 6.1Q8.825 6.1 8.825 6.1H5Q4.525 6.1 4.213 5.787Q3.9 5.475 3.9 5Q3.9 4.525 4.213 4.212Q4.525 3.9 5 3.9H8.825Q9.725 3.9 10.363 4.537Q11 5.175 11 6.1V7.5Q11 8.125 10.625 8.537Q10.25 8.95 9.625 9Q10.25 9.05 10.625 9.462Q11 9.875 11 10.5V11.9Q11 12.825 10.363 13.462Q9.725 14.1 8.825 14.1ZM18.1 14.1H15.175Q14.275 14.1 13.637 13.462Q13 12.825 13 11.9V6.1Q13 5.175 13.637 4.537Q14.275 3.9 15.175 3.9H18.1Q19 3.9 19.638 4.537Q20.275 5.175 20.275 6.1V11.9Q20.275 12.825 19.638 13.462Q19 14.1 18.1 14.1ZM18.1 11.9Q18.1 11.9 18.1 11.9Q18.1 11.9 18.1 11.9V6.1Q18.1 6.1 18.1 6.1Q18.1 6.1 18.1 6.1H15.175Q15.175 6.1 15.175 6.1Q15.175 6.1 15.175 6.1V11.9Q15.175 11.9 15.175 11.9Q15.175 11.9 15.175 11.9ZM3.725 22Q3.275 22 2.975 21.7Q2.675 21.4 2.675 20.95V18.05Q2.675 17.6 2.975 17.3Q3.275 17 3.725 17Q4.175 17 4.475 17.3Q4.775 17.6 4.775 18.05V20.95Q4.775 21.4 4.475 21.7Q4.175 22 3.725 22ZM7.825 22Q7.375 22 7.075 21.7Q6.775 21.4 6.775 20.95V18.05Q6.775 17.6 7.075 17.3Q7.375 17 7.825 17Q8.25 17 8.55 17.3Q8.85 17.6 8.85 18.05V20.95Q8.85 21.4 8.55 21.7Q8.25 22 7.825 22ZM11.9 22Q11.475 22 11.163 21.7Q10.85 21.4 10.85 20.95V18.05Q10.85 17.6 11.163 17.3Q11.475 17 11.9 17Q12.35 17 12.65 17.3Q12.95 17.6 12.95 18.05V20.95Q12.95 21.4 12.65 21.7Q12.35 22 11.9 22ZM16.1 22Q15.6 22 15.275 21.675Q14.95 21.35 14.95 20.85V18.15Q14.95 17.65 15.275 17.325Q15.6 17 16.1 17H20.175Q20.675 17 21 17.325Q21.325 17.65 21.325 18.15V20.85Q21.325 21.35 21 21.675Q20.675 22 20.175 22Z"/></svg>
